src/main/resources/icons/AllIcons/nodes/logFolder.svg

<!-- Copyright 2000-2021 JetBrains s.r.o. Use of this source code is governed by the Apache 2.0 license that can be found in the LICENSE file. -->
<svg xmlns="http://www.w3.org/2000/svg" width="16" height="16" viewBox="0 0 16 16">
  <g fill="none" fill-rule="evenodd">
    <path fill="#231F20" fill-opacity=".7" d="M11,15 L15,15 L15,10 L11,10 L11,15 Z M10,16 L16,16 L16,9 L10,9 L10,16 Z"/>
    <polygon fill="#231F20" fill-opacity=".7" points="12 12 14 12 14 11 12 11"/>
    <polygon fill="#231F20" fill-opacity=".7" points="12 14 14 14 14 13 12 13"/>
    <path fill="#9AA7B0" fill-opacity=".8" d="M1,13 L8.94562097,13 L8.94562097,8 L15,8 L15,4 L7.98457,4 L6.69633,2.71149 C6.22161957,2.28559443 5.61570121,2.03457993 4.97888,2 L1.05128,2 C1.02295884,2 1,2.02295884 1,2.05128 L1,13 Z"/>
  </g>
</svg>

<svg xmlns="http://www.w3.org/2000/svg" width="16" height="16" viewBox="0 0 16 16"><rect id="frame" width="16" height="16" fill="none"/><g fill="none" fill-rule="evenodd"><path fill="#231F20" fill-opacity=".7" d="M11 15h4v-5h-4v5zm-1 1h6V9h-6v7z"/><path fill="#231F20" fill-opacity=".7" d="M12 12h2v-1h-2z"/><path fill="#231F20" fill-opacity=".7" d="M12 14h2v-1h-2z"/><path fill="#9AA7B0" fill-opacity=".8" d="M1 13h7.946V8H15V4H7.985L6.696 2.711A2.8 2.8 0 0 0 4.98 2H1.05A.051.051 0 0 0 1 2.051V13z"/></g></svg>
